!!!OTL: Fang mianhua
!!!ARE: Asia, China,ÿShandong, Cangshan
!! III, 360
!!!SCT: C1567
!!!YEM: Copyright 1995, estate of Helmut Schaffrath.
**kern
*ICvox
*Ivox
*M2/4
*k[f#c#]
*D:
{8.a
16b
8dd
8ff#
=1
8ee
16dd
16b
4f#}
=2
{8.a
16dd
8b
8a
=3
8f#
16f#
16e
4d}
=4
{8.f#
16e
8f#
16f#
16e
=5
16f#
16e
8d
4e}
=6
{8.b
16a
8b
16b
16a
=7
16f#
16a
16f#
16a
8dd
16b
16a
=8
16b
16dd
16b
16a
16b
16dd
16b
16a
=9
16f#
16e
4d
16f#
16e
=10
2d}
==
!!!AGN: Xiaodiao
!!!AMT: simple duple
!!!AIN: vox
!!!EED: Helmut Schaffrath
!!!EEV: 1.0
*-
